-----BEGIN PGP SIGNATURE-----

iQIzBAABCAAdFiEEDwb/hr7q9OcYZu5SMu5TVaa8bkIFAmhwp7YACgkQMu5TVaa8
bkJcVA//c+FM1ct4gxaYm8DiTikZvqoRhBjdY0iKLbMhNQS70A4PUSzQo6WcCh9J
bfVZ2M39MbhtxgBMjsCIsz0fjHgdT1sP/TpSqPZ5vK8rnVbmwNF+czEHhctwFQvt
TbEG1Bm5ZRew+l6xwr1XIefXQurM4GA6t8eGinXfI4w+mOFZGVGf17iG6qaGJwaR
26dO3XPMr1YUwtgK1dhMQ5vr/lrWBByuUMkakH0N4sUQywOj4WqphAA6Q3BvniOJ
FCxh3o3UR6k4LcZRikPV6D8lexBAwrdzw6Bp34PLWl8eYd4t1CiWoeAYhVQrMkjB
AH3t24mdEp5xI2yEp6ffjQ2o7r4edgyRkwvT5XGnIP51G7rK3nIDwuugiTpvt/D1
cMNuavIglAakhx3Td/evk3FYFZjkXDQfcOVvDxLPYbXVWRihGxzOVzzRQX52XQHo
gRr3rTy4/WLZTKCJQwxJWBD8vSOAMoCFNg2fmpGn0SDOByWw13vDfhLvKDKljZec
QbgptQ4CxFGknRfRyPVh38TABUP82L3sX93dVqRxUn0MJUwdJlhs5sVKrCl/lEVT
NKeB2p3ZIHKAnGGfEFWxdlvVjp1MrmP3THwBEfAhygXypnL1oCY3PEu7h0DDrwVt
tJ3XFC4Q5aQmJFhVYp7gD/YDKtoMQv6gKuyYiDbly968wUavtQg=
=33CG
-----END PGP SIGNATURE-----
