-----BEGIN PGP SIGNATURE-----

iQIzBAABCAAdFiEEDwb/hr7q9OcYZu5SMu5TVaa8bkIFAmek56EACgkQMu5TVaa8
bkL5GxAAoRHARgmnZOgkdwNvaFfJqpO1quQVgBd/6mdQQIh4GxO7iXV4srKk+/n6
YZKf27AqETOCWjciWPMY5UDTBYKarD5L0pKlVOjtWA4G/nd6AAMwbA8nJEhNyfj9
GlAl4GCg5uO8KvSr6nPB8wIFSQPXDK30oXfkv8OlupJACfAi526AnPHQB7yExAIx
Pke4wPR66Ci8xB9Y9RTjKscFoyeUIsbygAW/jC7SYgfkWWSH3s88NwmJ5DUAy8ah
bUwXEIkwCJKCGrFQRkHdyKF6CNsbvLzSh47PzXSPRabrkkZ7y+P8VUU2ogaflW9C
7MN5mK1ABHoJjHpjvtFf1Qb3WuDE8Mrnce0C3B1I8g89Aub/sBfgObeVFWcqOjmB
Q7tcKxUjooBrHnnAb00pCafmN4wHbOqm4xm0rbwHpT2c2UY4oIAxxraSqtRMYNKN
QD2QtGBj3c/JkAXgwzDkqmy3wnihNWvRpGqB4eAGaR79WnUxJChsDJeMckLK5sxm
eAX24Hx2bO3ahMn1Unw+aYLbt2NB8vtC1YKUVsxltxKEzu8caV6AeLT7c1Giedqz
h243nh1l3j6LhouARNAQU2jKQRJG4+fpEmM4Bvv+HmBJFgRm0ETIntoFRPLj3MZI
4zVSb5NFFEGsavs+sBbkAZNbAC8Syr7YZSAEvMgxPMaRvJP8qe8=
=luX3
-----END PGP SIGNATURE-----
