-----BEGIN PGP SIGNATURE-----

iQIzBAABCAAdFiEEDwb/hr7q9OcYZu5SMu5TVaa8bkIFAmgTJ+IACgkQMu5TVaa8
bkJc/g/+KmSt8wyWQPasGtmc/KRNRpSWefAGTFRNcgrZiMRvG491GlQexpMBW3JL
4iPDXTiO6zqdGQQEGUsSesfgdTVhI4+69agrL0gt/9Qn6sRx3SvIedI9lEE1yx+o
wt/arxI4amZ//6vNIijtI8Q3zD3iIt33WoZSaQilin5OXuroUR9NYVTdwimuOfW6
v6n1+WxbUZKLj1b8oL4Vk21agJiV5omynaZ3xTIXl1p3RX4yHm09Nb5UbpCTiYYH
grwPIz6GB7BFXyAPe1JE3yRbch1SwaCUhghJrgtzSKtvHHVy711fXx28B/vjwfD1
G0/lL/GtuW4gZwMRYjo7pdLS62x9nXni4TLvYa+QeLerIJaGy4R1eQGNgPLs6f0K
eM3hRylj4IMSgNMGj/nEPBcjd7X26ESPayzMKNckpNbzeuBTfsSROlQ7EeO+sMX9
ZOlai5bN1pnP34Bhk2kbfArEJZksT+OSj4Troa0oepHFB/KKryJZMRs0lXZJyrhW
WDsdFciRvj4ITSUw1e+Wz/uePXZhrAWxJxRrfabrlHKjKRtk6nPWf9e7Ar0r/GbW
L8/5/+P1zwxqG2+QFR59V+W0M8plHeD/skRNdRcaHhZnnSQhKPtGlWTX4cGEq82F
qSTB52d+c9veOXH0uHdvuGkprncEWam2DR7sG/6pvo1xodvjyXE=
=TsP7
-----END PGP SIGNATURE-----
