-----BEGIN PGP SIGNATURE-----

iQIzBAABCAAdFiEEDwb/hr7q9OcYZu5SMu5TVaa8bkIFAmjNbm0ACgkQMu5TVaa8
bkLVlRAAtkvcvogoIzBmmTGTZCDfGNEOBP5Ln5xz8jelKGcmfSTt4R0AxTlbBurF
nH+fpv0Z96BpAZCLXJT1pmAgIU7L2WdkuhO0xX8zcqUihGUJhznzfNm3PCDlDuCy
Hr8FlQaNZqHqzYoK6bPuwIdFFap0AzUnyzuIUHPzugOI5bEpky1GxUpDQuUm7SFl
ctZmDT5z28kipiXdx5PJDmrRVgZaaV4xS+fqjL52P2PqMIOo8wLeUqrvhwNDfUkx
MeFdyfeIWBWMpky1bmaIc+KSDYfvn30Vo9M0bwFwGfQQsUbpahTdi7HNOIkZTll+
oMNqfyl/N9eRsjrCYHZDTeE5lUnQfOyUSy8Rn0sm1QX/kbjmwwgUznIC1vvxPWWq
bKAYhQBzxFp7qWU4GtXvHuvoOqK6PCVIn7+J2T659ysQrzQOe8CUT/5FmHsm67Os
quE1r67tLn21SQoYRDKnTsPEJ08QxPmRIqp0evoaAR8ZjioLLIJk7D7GSaEGRS5m
lfdPoEqhntYi+GIRaD3nZA/wXgKMCtUyMv1tEb2k+fFq/Nir+cUpPeLNT9NLWHS3
+Lx71YotVRWwguWlbq8yC91KOnHJuOeKn1OzgaJQvQ4cY7JdNnXdFmtH2lkVvAEL
zvYSNLvZHeq4WkoX7rP6wMkWl5geEElmbEBR6HipRLG/ew/WfAQ=
=m/5J
-----END PGP SIGNATURE-----
