-----BEGIN PGP SIGNATURE-----

iQIzBAABCAAdFiEEDwb/hr7q9OcYZu5SMu5TVaa8bkIFAmg2uVcACgkQMu5TVaa8
bkJTPxAAvf6ztDMLldatZ9K7JwfyzxUervsqHj2Wf9DSmJLvbTdS/raQQ4Y38xgK
H1SnpZ0abuhHI96JXiggqvh5TIrWCn6Phn4XRieXGQK6XduZsLXyecd4XQVZ9lDG
ACjFsny4ExbA/XdFScvDj+yIMyYLNoxuzVxWhlTLr4pNQJw+SBqxEUBk4xVqAXoX
FxUYSB5qCx6jRgB/iCme4/XK5IZctwTMXzTDUAOjaUgRXH9ikpea2Mez7ObUuvHl
qlU5loPuRfhqYMD1SVxzjADPy3EpTcomUAM+UP1QH/e6OdQDAa9sV4uC384Skvl6
y2XPMeRzWJWiAVeSOytxRIJCcsWnS/ZBiurwnpcIqNqZpnDVCucStaLLmFNwWDtu
x2y4vvZo83kLOjL+ZWicZEESZfxP7xjN9u03J1fAzAcdemNToYwhPYnQykJ9d5vj
76FnEnD9FJ5ERs4yC7iSX/3AFWsPT128cl2/juySPd9zFEye+jReHvtxJelwQUTS
gRf3yiEuxcOltX39Q+Wtr8YTFhdWY7pBtxN4SUDyIpT6loH/43os367QTovCOig8
SEH2R6XfxTSx1l5sudpYbb6EDmjL7BUjtewm0H1u1sgt095zFTvPz80mE3Skxibz
6PnySQ5L5bbFGAkOoyJ4uPX60zW6+zWmLb4b+TDShRD+QQeiLEo=
=y67M
-----END PGP SIGNATURE-----
