-----BEGIN PGP SIGNATURE-----

iQIzBAABCAAdFiEEDwb/hr7q9OcYZu5SMu5TVaa8bkIFAmjxiE0ACgkQMu5TVaa8
bkLDUw//ViyHmBSZqwi91fxbHG3LN3sWSKNYtuH6AMvtt4K3zvQ9nZMi8VeY0xR7
raLjJoPkrhUXZzKJjWqYvFpZV6Fd2LOzw4gwIxu9kr9Ff173+Qhk2pTAIoE+B2u4
ORjPeiq8NM4Qu1Wg53rEn1uu90ggCHGzA84tEtHt1x+9GMsoPlvLgpWPA8AYN1NF
x7LxBY+jWqCOz7OyP2t+sdcm6t/Fm8abgpPpeWq2sOsWJrkZiXpMLyJrRZoyNxak
5681lhqTx/MEYiStjNRjtrOFVMIeLySyXjrUmqSDimmcpup7Rvt8VMOUbEezuyip
ekr+ZATg0bvbzDSXlUMDRLw6DWZAxyt/sqv1MvRR5WkZOwe/ZvHTsuub59zrczRi
Fmal53EYcnEaA15iZ2qIj3nVGzviBa37GpE25VGvmENOQU78V+dghhJRrpzDvCa7
4EFYUjuGqiLX60WwUNGQBQCWT8jAtnd75rF6+qZ2E8sJugGzQcgIHvMy70unmgaP
w5OSDOAyl2KIn8kQY5Cwn/XR09LoYhTmVUVvSpURcOXL3UEL59JPhsZsPZXqyis8
e/9GbMsuktUceocTYX+uI0lOMH1J+5n0khypEWubirHVjyr+LvI0Nv3RbTKwXGu1
4M7CbdKfhp90f2gY52N+E7TCrxSiCB1VspWxNOXvZvonDb9H+Xg=
=MQT0
-----END PGP SIGNATURE-----
