-----BEGIN PGP SIGNATURE-----

iQIzBAABCAAdFiEEDwb/hr7q9OcYZu5SMu5TVaa8bkIFAmgTJQ4ACgkQMu5TVaa8
bkKchg/8DMvha+ONcuLnAoUFskgaFkvGVn/iOd/e4bpqw7dYdn35FKXpMuhIAk6+
i/sUyLIq9lnzecCpDvgK4SJExYMC7epS9Y+SIqaaSgZZyzrUopkmm/j/XRTaGqHl
ynayXd8gjQMZgBb9zsaKvAcvsjhAFjxaRyqkDTMkn9cmhlCMwGnKCtdBXPMCGPZb
xZneN3/bQw2ZuhfxbWiZEj7inIvNm6bNmBt+56+ow4spu1FNsoMYpb3l/T04cZbv
ZVs+2GmbOuqWWBrlUUhXe2Co8F4RvVikNDEOTYPoJQDOQguVMj0L/Ix2JiuFeMpx
iDZtss4Mr0C+/oJaYYuoAtFLAJ6Uhn/PmFIQw1NlXb5jtDeqRQQXDvPfKPcIaxXb
kypxLs+XCFWsaCCMiBzKcRRAhif6u8IpMhDSnnhMehKPh/HBrJ6Shz66FSls/CKP
BKf7l+zTV1q6cU37FTkipztWkdrrm/K1PNKb2uqg+AsECuQRDe6SE6jmVEjnrTJG
zbFqyZy/RT+1aqF57TAAg5MMjIl9eMiXMJ0IgM/+n5NROSv24O3dCfkmUCbHQmVa
OjV9dfDbkgn3TcwcMaGnGxNgkn2CMQ04KFPpnmCuQxpdQmSuomUaagGdK2SMkDBc
tqPEyIfzpNnz/g6elHDHmyuHnbRbJnG8kl36DFXk3zyMnde5Tv4=
=NUZR
-----END PGP SIGNATURE-----
