-----BEGIN PGP SIGNATURE-----

iQIzBAABCAAdFiEEDwb/hr7q9OcYZu5SMu5TVaa8bkIFAmiDNkAACgkQMu5TVaa8
bkI+MA//dPdqYcDbL0qY7T6GtGqNDE29BOCmKJU9W5MLw0z6gtFGQBraEMXmcrrj
oMLaXcPQLvlQFUKfSrI/BNXOGz8zpdui0Neb/+miFTq5tqKJLdtW8s5xRiQrOuzD
FAUDOFcBFVif74rE0orOZ1zuCS2DLLE4813ulo1QFGUwMbkhxg6Qgwor/kVincJX
JVlNemPAhBE2lFpoRBs/F7Yf0H+NHll8pxHpzIUOr0c2gKzyjPEyMjC4tXh2/RMI
vNFEaHadc8fuH8RnKbs5yEikN9MBkAJOffnHz9x1GnqoWo3dbMByZ0aaJDpr/t8y
CJCC8JteDt08U16kN7YXNrQUxLpDX5anp6Ocp7w2X14NzwBUOXMwToFRBvv3Ljw5
Be+E6T/hXIsffS/dwlMVWnXi6tbgLJiL8tFlB3a9fAsJ2BjbT+hqPv166159yoPV
S/LXHRv83H+D7rrORz+zSciKL1i3vk/g6y+sIW0Vz3h6w7FYbtxFjQIBoFKKKTlY
uyHiCdCu1eDjqoouXJwHczvlHCrlQiIQ686ii33nLvrJtlu63hNq0CDw02/0Foy2
RmRQ2eiz37oj+qazTcan5bXPMVw1XLXo/Xz/MKt0RSg0mBIBdxxSEQwaBrq5Mal0
RsxD9TzRl9//BxXmsqTZLHV81tRx2L0vK1jJqO6zTLA73F64TA4=
=bml7
-----END PGP SIGNATURE-----
