-----BEGIN PGP SIGNATURE-----

iQIzBAABCAAdFiEEDwb/hr7q9OcYZu5SMu5TVaa8bkIFAmekkxcACgkQMu5TVaa8
bkIgpA/+P2DvaGRB+2JaSNCYmsEb9KqkKeM9qxgnhyrZf39tS3j8w/8kczQZjeVG
BOgRJXn6NdSQ/WGeaRf/38DweyU49GUuL9qHP5281Yt4hpXKmn0ydS/kNUmas3fi
Ww82hH0EDpsCMY+pF3qx9ZmDgY8Pr7BwEzb2P4KvUEyzzdA7IhKGGoU5sYP3Jph/
IxJbWFlb0mUDh3pwkBN1pPDQ3Mlz04UheJVOzrrCYIWyupEO20YUhfWkRpVJva7c
TvuyraevXPMxQcaafLAeW2qsdwAaXWMGRR8X/V5zmiGUtHXzajcdCtkNLS5/Fmhm
gPM+kbk2quUwc1EdUaHhPtgG8rCj0lHJf6nGE6LO7/OuHwcjdLRd3GAq1rqrIWT2
geVxJWa0+iWAYnSacNwPDEphbB7Ne6A8ZnwGdXX/COP8ZnPVUj5BLR7PpQWC/Kzi
fB+0btfQuDmzaGvnV1fAopNcahxElKognjmmUqqduV0eJIQxiiRvkR/sOZQJr+DN
P2YXFy5Z1FYamHhlPHdEQ2ljGahJN9aWUWDb7bA+no3zNCUXm10cB3tquAC/DtrG
rlTU1Jo0mCROjYobduRw4+K9yUQTMf8uBGT89fqfYj/TZ2o+P6YYuppbrfymWXjO
xEELFx2+lBZm+svZLZYLybxqZzNJMsUkdu2uJAeGe8Nwe+vI1qU=
=0DIn
-----END PGP SIGNATURE-----
