-----BEGIN PGP SIGNATURE-----

iQIzBAABCAAdFiEEDwb/hr7q9OcYZu5SMu5TVaa8bkIFAmgKynAACgkQMu5TVaa8
bkIiaA//UW5JjKZQwDXb1aqNepJWMmPsTZlgDn2xzdzYgpBSw9j+JNc57zk4fpcX
PyAiaR717auPwjGn1Apd24YdE3kraEzxwg3T1aUHCGTgMUIsPNSDL0ZH6fHLduRn
SEj9J/ZtMlR7VlhLeD6HjziV4YO8fsyPpIt4kkAtIBG1UbGYVlNG+m439K8jqTRo
sZGAeVTx6Aab8N4dlK9+A+vp7rQBxA0sOg+EEsZd4dkyR87AS/CvWt926RoewWjz
CQ43rochLnyFDIaJRMFrFJAnAd8EnfPl8oCl8Y38eo9SrXqXt8Tq2cl6yoFActoE
vPB8/whvsv7PTQIXrwUAszz9C4FmSShcm1tBLTr18C34DCsBLq0upI2VH/87tcvs
4BqhPXuJxYWKTaUeB6RazUJq/KSXPMT6/OXARbf25PzRvbJwCfXtanuiTmqpq4pF
PEDrlTi5RYp+ySmSgV//PAMg4xVviBJK2XHFiu/yT9OzNl9LGrtL9B6Jp7j9ea2p
df+JsZpGH+wdtOLuTcS6p7zAritdZdwXMyQiTQ7yjcj89Bicj8Kpa8Q+lJJhwaF1
/kESIP/HEYpPMndsD0DG1fg8fWZu6sZnWK7wsf3fimXYRRuZoGopfDvPfhKa7cev
M9ZQAi/rNEXznt1BzDq2R6wU6q6r4Pl//1CtTxLeYqrKc6S/ZS4=
=pTcu
-----END PGP SIGNATURE-----
