-----BEGIN PGP SIGNATURE-----

iQIzBAABCAAdFiEEDwb/hr7q9OcYZu5SMu5TVaa8bkIFAmkEgxAACgkQMu5TVaa8
bkJP6RAAkvGcLSSj8lLZ93+l0JsDXhHFL/wXctbATUjdmtHh/q7paa0ipPB3dbMb
SLABBb18c73Nv1AQA/82IxuP/3y9QErRNhmOzzglyin5f2AHMEdaUABW6ZI9BCtD
bqE4XrwFh7oZCJB5n0xC6brVdGttXydXd1dHtJ+M1ZC9P4ehtSTP+NAIyfXKx7zt
XKUhb4FHHcp7R+SWY5yZkGhNkTFs6PeXaziMZX/jbZd35lc0+eYAhrhwaUshKiHv
TWj0KlO3gQmROYNCSPouua+WuGNOLnEfh7wBo4dvEBh1Hfla/VAdGGYQyp3j7Yv3
6RbUT3Yiw7gZIFFV6tLFiIwoo8pOb74Xe5rcigmncWHgBx4OtZOBIlVdDEuQSXEI
MeiAXNxKIR1RxIQfwyuSdJKOPu+0PdOayQK3UPGcEg9xAtnikA7rmLuu0ZL8ncqi
G/11W8bUGekpQ2M1Y7uRCUnPq/+iTRynZhuU+M7QIrXDJNvtlvBYfc1CtoTktek3
O5sHF/1gHSQSxLAZf+7DWAtWB1FDdkBo18iQ4b7WyQ9nvhJAHeFZoXPM9fmd6AAx
nuDGuzQQk06vGZzpZb3r97HRV7baBMqN0NGY8YfTONNZavhXlHKmqRzF0rN2VsTm
4y00C8CS78UtPsvFjhJ0fflUwTiJIcK7JF2O59lqoju6lemePU8=
=q0GG
-----END PGP SIGNATURE-----
