-----BEGIN PGP SIGNATURE-----

iQIzBAABCAAdFiEEDwb/hr7q9OcYZu5SMu5TVaa8bkIFAmjxw14ACgkQMu5TVaa8
bkKcRhAAu8sczKjPRPxswJ39njEbsswtVcIYPt2qGnE8oDCqasIGgpYd4gERNc6e
DA7xsy1kYQWxPoxzASyRKxPMDAP920WBjhtEvep8sqA2zOmFrYsvW+Fth5bmLY3L
wR2eX0TsLUgGDSU/tVal2OM0xv37B5HSqDCtBiWBXOkNHYT5xUXYIhs971K4pfLu
htkjCaX9zhkOWFyyBQJdTBUILKNs7BguS+U9N4O+vD4dTfniLJCXpgm7cs5TMVHF
Jv0b8HMf1JUXJxBsWjXiJBxZ3Xg7Jd4dtEzotKpVS6OWJtMkYP8OPUtFrvuSW8nx
nF2MX0aSYHz4VZr1VsmA0VCsoPcW4M+aOYzCNo/tx7bZHujZyOMkbrq2e1f4nx89
yYOKQqyzwW71g0QvVtl4FwmqUAAM6v51ad91CPJ/wVw1k94neDLkIA+UNUi8xHUU
R6RSLGvLvjBXPgpYPMaGS+HlFVMpBFp91n4P4z9LlFEqRWYFJicfIeI3zZMlluRp
v7ikEfLqRCkcWqVXzI7pcD41iSb/YZAsccfMnmrmVLUGCBsUDLBfPCGSCQR9ZM5h
+P+5ydzi4Y96JgAxvsPCttTix+NZTEVYzhN2V52UtazXaHANM6ZULxAAJO1lyl1F
TcyKrAD6GBywyTI+3lCJrhRD5OY2DVgeEZjz0fLj6pa9NYkUKUc=
=dixZ
-----END PGP SIGNATURE-----
