-----BEGIN PGP SIGNATURE-----

iQIzBAABCAAdFiEEDwb/hr7q9OcYZu5SMu5TVaa8bkIFAmfcMFIACgkQMu5TVaa8
bkLuTQ/8C5MvRD36OR4fbNh0duK9+oV5TUzyb+yiILQ3/e9gflUnkuK11ZWs/VLM
WsF/7hjWreKcNV1JGe2K9eFX4RSt7B3Y4fygazxjEV3BcXMB7Pn8VJnvCPHFU2cl
dT8LnNu8OFnTTeFn3YOHinPOmymkjTyZCiantSQk9oS438+2Xv4xDiSRipKNJyzc
LEpco0Rtb7WUiFVygqaMkn9p/XDj2K58LGjkCSwFZ3Szn3tpnXR54GtS1+L3Ds5n
jbYW9oNCT2XgCZyLMbwZkUd0zpGZR7iAGDVfyrClHdU3eGNELtX/V8gionWl1nB7
kwKg6+KNqj6OPPfU3AT7eyUaMLJYJd8yFB6I7k3CKwoCVU3Kq0wSWXByIil75Exs
//ut3ijXu3Pgptv/m7uCQrF5mhf//v5LWepYNsLpmmsz96wS1xdjWZeteHh/wTC7
/m/ZTS9D7uva//WYhRbUuI4Xw0Bb+QrPuqxjq4HZnvIqYolgUJ1KmSW8IZK4AAt6
Kc+Vd2CXmVpJHw4dz9ViA5N70vpfBW11Zv83odMbmXHUxeKtbUZqw6eqd3HLA26k
JgE83JFMnQpiQGPn2ncDknUUkCUlv79WhnyhoICGldZXpmPgIz4lq4FBQRuaTOXZ
JgNGtMJfetP5tZDzvO0bR4EbA+qL4cYZHSY5T/BAjCiiVU9M7WY=
=TKRT
-----END PGP SIGNATURE-----
