-----BEGIN PGP SIGNATURE-----

iQIzBAABCAAdFiEEDwb/hr7q9OcYZu5SMu5TVaa8bkIFAmgKyPkACgkQMu5TVaa8
bkJNug//SXF4xVCgeQaPNlDIPAJcYA4XK3dgQsO8mQSmiJP3XPOF0LfwKtAvQL+c
949+IKtgGmJDZrbgcxsCWL0GwQCGzuR6rbBIK8T/DAsgGUkU9HVU2XDVmUhKqZ7F
ZTpgkHqWdJAAxaThVVRUB6RhJiuLSkvm4lU21Ng6xAcFGwMGGuH2lvRzyAW0VUaN
CUeKQedG1tVvBKjR+F8gFUY3garUDJM+UPYzZQPL6M0jcScAOshM3UYBdiF2y2p7
n9OXXhxpM0nast9/qfZjWS/AplYTVkXP8LKNVgRg3jSiaZcZsAMXKegz4CPxXT9X
Ws/vvEvy1opGPhqXjtOBgrtDQwh1zkYtEXGkTQxwQu1qFv+o6oLBtwXPc5ZAtUfr
lvhJ3jP5yei2hb3W/ltgeGRE08UDXv/JBTOvOkOnu6dUQgAk3s8ripuN2QVcTacX
AatmB3ddNy2NOebDubRhD+j9v6ptGWO/Fb6DNSRN/CxE3bJCNm5PdNDFpWGZ4esz
1iFq4j5AQ1j5/ATfI9pQdMRTcJVZi0Q8lk46Zp1drJyGk/kzh2D7Wv7UFppQfyyG
0ZBREq0+fXKeE9wr6xw05rSF6L1tEGv66kr2QcdhYnYGQprDruAJDVUztANe4xwY
pgnV9PYZBvsq6lKO8W5DoRocsoZFtjaQqcmZMf6kMHPESHC7vXU=
=FUP6
-----END PGP SIGNATURE-----
