-----BEGIN PGP SIGNATURE-----

iQIzBAABCAAdFiEEDwb/hr7q9OcYZu5SMu5TVaa8bkIFAmiUZTAACgkQMu5TVaa8
bkJPRQ/9GrudAnS5p9oDKfe4Oq1oQiRZeIW5mExpmZG1HA7KjJo5BDnomn4F7f3U
NcuXWM2mGHxnHRuDcRgEgmbi5r82oORjvds3cRuNZp32/pG4ediu5O796ZVVFkO6
0fCeGc27gxjlMFHhzIUSi0IaN3/NQNxfo4DIEYgBY25GSBfZGnaxe2sMoZoe9Ya6
kzyuHOA+bgUJo6w0j8uoeREDbdOrHPsHpPd/4YFvej4rDZG68mQtIXubSYi5Axwp
R4wL6UlUpdNgU58uyQWURX/fV5qQ1YtHzSD3/mS6XGAULaSfKbXHMhpoEM3a2PRO
3zTD3ngB6Uum+ydBdOCrv2CduK7FeDsFD/BybMlK0mJVDaFSK9bv/SdWUlXrbS+b
rz+BRf8bt102pdD5YErQnuccIjP2ITCLxAf5aKArnFEWJwQUN3M1eVoCpbqL80AE
vaUgf/VRIyGLtggoLUG1/oLVRuML371cgzS7xvCqQ8IOCa3V8aFrQJfvWsZNnCwW
hyc/VLujWMBAkCzVhkzVbJDoOUDTMupt1UtXWmpWbYLKTTRsUDvxU4Sez6EiB/2X
xHy3K4KkF+p9vLmbqBQ+uEEjsniATIdD+/gNzqo/zubpSRC5ajnd46QnvDILonO5
gEDFImZi+zDxhvP+GcBuRB7GQgwXi+dCkfbbxMI0TKoZgFeIwVk=
=K7hK
-----END PGP SIGNATURE-----
