-----BEGIN PGP SIGNATURE-----

iQIzBAABCAAdFiEEDwb/hr7q9OcYZu5SMu5TVaa8bkIFAmi56acACgkQMu5TVaa8
bkKBJhAAkzfrej9/Il4ffrrevaU8/+YyL8wTsi5A+nf/V2iqlwLO31Ead4EsAC4u
DXhkxMiAua9v7Xa+JqtPNRPE+pbkHj+Vdb8XGzFxbN+7xXNxWXrGE6edAL8eUJo/
+Ll5KTkXfEJk6iWu8c7a5ibGhDFXpMnOa+qkFyH06axQ7MztOyZ3ra5Bt13gxovs
4KG3US6dMYNNGx97DqNLGHDv75H+pboC06qWBP94dvbxVIOiVYpHwAK8MIBVLJpD
DKMpCkmeqoj7++1LrcYs5wdPAmnyMgUfEAyo/AIKWbztJuIjfLOKpoiyHMFpu3QM
74bkuJudT4QyqZ/cAI+76b7OFHLOEm39cJYVvIOq96jQWyVWVPGop4qVfVzPQgYN
NSm2oRwU8tlDIb58UUiFBSnrMtW1mBzNJNMKoU/ZL27mDxpeWG6lnDT7clXecu/O
ARf7pWe+4npX7kO6RkKHZrvoxOD2hQTSFqopumxo5cEr4fUUtVcHjivTFr0rJonu
EzUSTgAx7F3cVi0EOFUb7zn4S1r+4kUkM4c+0dD8M3vFRyMXzcuZp5K1Ch1DOUpP
y7qiUSItYLdeCFgjLiqK1ijGF3zYtrI8VPYwJ9f1gKa0E249OR0xVGX2I1k5UDDA
S5yp1oFqI/MQ8A3EzTIHJObmn5HUxo77BvjSg5Lccx5e89gtcM8=
=8imb
-----END PGP SIGNATURE-----
