-----BEGIN PGP SIGNATURE-----

iQIzBAABCAAdFiEEDwb/hr7q9OcYZu5SMu5TVaa8bkIFAmek0+IACgkQMu5TVaa8
bkKeqA/+Jh8wrNUECu0QAIS/pmxt5YTGWKImz0M10x5V3vuEYA1R/EPT8nuPIkIf
GMKuckzYSiRujWcuxq6tB04DdB58DITzWGkGxR4rPa+6hdqtNbikCkR9ax0BX9yO
ChZR5fe2ZFZy+2sNTy+pGoioweqETWcjGwwlNoAz8EfCAE9h4CYyYmLBLO78lInG
mOOG970h2b6B9Mf6M8GxYyFDa3kVNz7GyApMX0/ORiERNJKZEwK6eu3kgQ0amiY+
yYcshYRaQaIm/00P8b8Mv9V+XHzX6/ofcwZ4WwkPn7k/IDF8q2XnvO/fEWk2tSKm
VNjPKf8sTnvEKt0/F+UxpYNAbDxhD87dimBMjdIhHKmdym7CGEytE9t/pmSXpHg8
rb/WeDTNxsvpNDooINPZ2VmdTbxUKKTlf9vTxPMrn56HjzM8h+jgX1nspDa5d7zE
F4x/w/5btdJ2GOiV6K6wSBX3bjzwL/SgES+GUddX2fCqUdQBfhxEn+8hTQ/p8chF
kYhFsP5E5LE7lV6jzGuiIXWq8nF5Hk4c8IP9onKs2huFpyksLh/KgMFOiPwJ94U1
VH31UXmWUr0i9VMDcZD+vKX9cWM9uiRbC95wvQqGV/k/NsEzsa36/cLCwdtkMdiR
LbNeGH3DBs3ZF1TpnyhFkCWxFQqyTM9IXFplBCHMA8SbPgmZRbM=
=VOxe
-----END PGP SIGNATURE-----
