-----BEGIN PGP SIGNATURE-----

iQIzBAABCAAdFiEEDwb/hr7q9OcYZu5SMu5TVaa8bkIFAmjkB2AACgkQMu5TVaa8
bkJCsQ/9E0NoZ3Yxh1OiSdGiF78S75K39NfVwxHj7Vmsn8luKTMRnWJwoUOOFvC3
Z8uvDp6NC2Lt0T5NVgFOkYkILcqA/iE6JkRvD4TSB0QSLkjJ0NMuYf6YUCGb9010
/fA04KwvqzKXRRxHMgGHQZ5IKIDIgXyNu+3tLX6YjzUVKS3o5eKY+ArSRuz5xiIi
cHmlgxWaHDie4Ok0US76reP8WFwmipimhUfRVd/IfBsknMwB+Q8kebfhdxM96JaX
t3F4/c00rf/VuFflEtAuEK+0yGROMa10nU8NSkAcOQ9fMCbGd4y4OvQlXxFSwiyb
e2mJibkONRXPMvR38+QGvL4cslhhEkOphW/4iSYrUuE666QiqZ1cePcDpjAU+c41
sdXfAgJ1QaB/trHTRduStSfp11zhCswKZtEaTPNKr7hcXAXCUdWrCJq2rmCJ/vtg
JazrpVfyB+/4w8PVYFcQkMPFziXywYjGr17s8KvVz7DpnmZcwnUvQDXlplu3TJmT
pXpvbmHLO5dOodim4aHQnOoOoxnzQMTgAYYQZXpErgK8+WMZAtJplmp8xVnH1jSQ
rSbZO4jpNh1eudHa+ej9FQ++lnwMeuEDEH52C62nPNzYaJPNy/aVufYtF/LV+JBY
tFCHnlmuCvevmQZdTvbd54t94UtN5tG6q9g4EnEYfxtE/xGEvvQ=
=JQik
-----END PGP SIGNATURE-----
