-----BEGIN PGP SIGNATURE-----

iQIzBAABCAAdFiEEDwb/hr7q9OcYZu5SMu5TVaa8bkIFAmgUU1QACgkQMu5TVaa8
bkIhDxAAlZxFuT89THBz2BikDWcIiwhsj8sgZNXlmnqPDESAYiwPakNVabGLutc3
z1pf/ZEpJdIN7d46vuPFIOnHY8IFIhTsqbk5NDDBEx7U1J0ow0qDq3WvtWuFqPtp
p9O8XunNvIMM4sH9jQUIZgnNq8DZZ6U86W1iFODAwTkwpvMyes4rKwXM+EQzl79A
2fMqwEsPzPTMLW9h2Ba1jXDhAjinNq1Qo4UhHN53CX3x+84m9SUv9ABzSE7xWlKE
SXyvANj3s2VIIAPvIWnoR9eMzlD8MU/p7DCyxTyveHkWMeNtLXI5+YfatONXNUZf
+qFvs06boyADQY+7BJZiCW9vq5+NtG0R7EgsprOu1o0ohOb3aBuX5t2PHXUqaAb4
RMQBPD5njJb1cF1gxM/tnjIMuo86poBnP9/IZ8XBtIUv0yDuxbsj8r1K7qDlEN8M
Xb1ztbMaxpm635mQZp0txchR9FMBOQy6/p6uuZKs7eztEqKTVV4Y5NKZEetCpE+j
Ws7MXQlhwyLyMX4p2ZzhTD2k9lwRKWkD/TrhI9wQ4lB8EPM3TwjShAvtNTpBDwlO
SIDdXyz2wypmqDGlWxuq4mvLx9EH6K3YI+TgVfwajGdT9hgW/wpfF+7wrVaitm7L
o9PZ+miKqewmtu7VIC5kbkfxz+v6gqDNX27zVw7vaRRu/3RWS2w=
=TQaS
-----END PGP SIGNATURE-----
