-----BEGIN PGP SIGNATURE-----

iQIzBAABCAAdFiEEDwb/hr7q9OcYZu5SMu5TVaa8bkIFAmje6xIACgkQMu5TVaa8
bkJraQ/9GDvQkmANzeRNv0MS8HUoCJLVNeulnIQTRXaIBMbuxQYkSuOAjCjCiuW/
nQ497INcNNimuq4i1KXlgUxa8zoFXHgY8+NZI11wT8YzOnbNZsPbzBsuBnV8hjrg
elMTwnIJgOQ2muLRGOgvtije9plfoKjbKEx/YiQDm48CU3agnVUuJKLNIhzJ+KeN
xSvEKrvHy/bS3y0y7qYoQIvcIP2o4AKEp088OQ7awz3fmFI5VMksbrZtRK5+yXic
XjMGeQn5q3KUwCw1kaQ79kKh13yX0K9Q1xJhZyKTsTdGl/SOqsSg2vjUI6GtcTga
DT+//wpXx6Zi8h+Z4Q/bfWVNU6fKLahfn3cI79U82F9PfQ0OoNfQPfULy/v0KkSY
hwIYNhjsb9d5AuCjXWw1o1zSKf2BPitedpeD/KFjdS3xJ8pa8NdEg2QWLsCEy7Xn
9EE6LvajYDM05Mcp5KZyiq4q/Denxc4DiAfgryRgFSD0AF5Z8IbefMzEm3iU7vc0
5HBVhcB6iQ/uo2TI4e4751F1nGguPFnTf9JYgiC6vuS7MgdQ/nSooGMHnIxC9XhD
nXpM4VSV/N1xEp9s+hIzg9amr/ZpMnEg4wPccVA+IWp5rDoffVpe47D/fJ80d45J
GR8PkQu+wQ8EcyQTNth7N0+rLrlFDh+J+QP99HhiL+4Zim3h4KQ=
=jZsT
-----END PGP SIGNATURE-----
