-----BEGIN PGP SIGNATURE-----

iQIzBAABCAAdFiEEDwb/hr7q9OcYZu5SMu5TVaa8bkIFAmje6xYACgkQMu5TVaa8
bkKCTg//cH5RJFdRJvLnF9MpdoecUmwLbhin3fkjO+gpHQ2X4/LlVjQfploNwxT/
vtz5vz2LOueai3lcnfrZ1N1P13zit6kkNNuJpdWhcNsLGdQza2UmDYMGJTLicxpM
Rg7cR7ouVgYEx2/cqrtxtzkyJizLtPzQMf10ybCFwS23X5830EalR99Pzv6mS/fa
ZDSROdiqLBYTdnSEravBhpeGBe1O6uX2+70E3gN8RKStJmUYltZLTAl5TsGGLxh7
OJowaes7ieWF6q76fuaBcU5KgVNNWYycqoxhGLrbDkavkR5wOG1/EH3A1orVv/p1
N/Yx+o/8CWHGTl9qbRNGxmk7FdZ9aL9P0NmHJOnX0I8MvwLc8MEBBU3RBgLzkZcN
NyZFYaNh0dc3VFEnyS11mCaf6sTGv/QzfBjUusJ5S+hjO5UYHvogXnYAINYeO43Z
rgAhLC8jEJGNIG8aRSBkGqnNt3t1xiT2ATuN9l8BTswLe/gC9F2lJVToXnk+w4Kd
ZhiQRWJk4lavRyYgErVnAHbnr7BLbigjrQwEsaU7FXa2RyEaHvUWP+e0T98oy1zH
xKYkp6nlYuo12DqLdjrnozrU0qlPxGxbg0N65l2xGYdXI7+C79j6QKV0ZS8bMNak
O+rBkc6k+cTIdSvKt3pa8Y0VCOb/gvfewMVsIBYqrrV5qDWZE0E=
=5/iv
-----END PGP SIGNATURE-----
