-----BEGIN PGP SIGNATURE-----

iQIzBAABCAAdFiEEDwb/hr7q9OcYZu5SMu5TVaa8bkIFAmi62dcACgkQMu5TVaa8
bkJQ9A/8DgSeAfFshcsVNPgYyKDNcIpEXgsJYUZ6IqQF/NyjgTRQ5bU368bLAl3N
oX7FH6O68mYs8jiNeg2bW5lshLEBGycfKusdmHhmm/NsDuO0pG3oeNToBAtwi+Tt
xBzUFk5p2JEZTi7WKk4+zXK8HNHDQVNCZJmcoEqwY05Vxh7M3iFWcH4GeJYaOaRt
rq6dpnsit8nGWcfT0oyarhTqoh17LA3bHumhxyv86r9lYaL1jVDf+5vgLR9ZHQpn
NcArnWgdZNfO/msWfZ/sLgpfuX4FKONlX30sQHGi4K9XpmVj3eB0oAjaC+ygAadr
LX3AwAS0PUuS119167SC8TTcOA4T8gSqGy8nOodZIV8TRz5jVwy/qiToHJpfBqmn
E929gInRZl1d7O89fBBXYIJ11HlE1+TEqiPSGWpmOTnfwDkR5tmNE9pwi8yaykjC
PDfk9CiIhcOsPEK3SWkpqB+mAH89/xB+4uOyo8dOSNIVRdkCWQHqD18YJmb71eIK
6vd0hGf0G41ixHncC8JYpItQY0rBOShaGnLhlboC4R6NAHi1Vko6F1vhUH58CfAo
QZ+KOOr9zOcGOXzHRDD3T3oWrNyqE/3K08w2lRDnkWMsFhcQwcQBd5Dv+s8SaehK
os1fbm+z0x+FvSlmq79hSXzSVPMReZE4CuvHuxUJ3SA85Q3aik8=
=1CWL
-----END PGP SIGNATURE-----
