-----BEGIN PGP SIGNATURE-----

iQIzBAABCAAdFiEEDwb/hr7q9OcYZu5SMu5TVaa8bkIFAmfcQrYACgkQMu5TVaa8
bkIFnw/8CQf/Dqtxh8Ov/OHE6k3JHtMQdB4NpFPILut6FM4chjKkZ7RvSit1ZIvZ
qyJutPsCPgRYfJXNI7+7TVRSg/V/StmuJsJmiDP89CIjKIQXZemGT7xpeKBL2e7R
/+5bCey8Fu0g9lRx1WOyBeDFd1J9J3zwPs50YiikUFGiIjU8UhgrLYKPJNiFPT6k
r6tLuGBFBk4W1xrsmlDzhMuTu5MR34Bk4WdJqKjaFLTFxPmF8ZvAKvQb73rXTtlr
dXBAlZ6DXdYbPoikWsaqAlUEYhu5Cdp/VU5h69UvSfc6Dq18eztcG4Acgyc0L7Z8
6v0p/7qDyf7O+CICgHG3uzZrVAsoOpn1hIU5RcU0+N5S0Nb5hnDrEyxex7ya4O5q
Q8s3CfBOjA/62AMrWZdAcks49culvcdltyS0k/GbPeiGJsCVWvCiwTvN7T9R34ud
umQJ7dcM+rTLlI/UzV5OnBmI4c5Bi4taCDPFQfKriBeU0RlOD668viX+WDMakPuo
2kORI20UEBuWgucuJCod4FRbFvxS9+ygFu5nI0otebVRzKX6JQkYZwKnlwBxvhrR
dnDjdHdwFc3n96QSBHKOAkBxo7/ZSmjTihL+/ryg55s47zsicsg8n86f4AD8wnZP
wt5XmROv2G0SEo1HCBrhlKPenVvjlm3GUDU5VcG2U1nKPTvzNro=
=6vpE
-----END PGP SIGNATURE-----
