-----BEGIN PGP SIGNATURE-----

iQIzBAABCAAdFiEEDwb/hr7q9OcYZu5SMu5TVaa8bkIFAmjNP7kACgkQMu5TVaa8
bkJ9mA/8DJv4vfmRNrbos2TZAVDAdpZE4cgE3Kv+12OiFFjVTR3gqVd/p9xbTb5a
z4IaA7XPaDvEOtcRUCzF+/Dg6h5Vt67NPO1UlEMEFBhV6mEVks/oCRvPSAKBYRB+
llA5vtRiMQkgUIswaQd33VabLfu1KWHXiJ+xMkRUv5J5Xiu4lEp1Ps/7szgJM3sO
3GJ5uCUREEDx1usgiOP7ajMZ075lJmIWFFfJO2ZASz4u6IM8lC9TIakz6EWC8buq
6/QBtdcifHn+wEBhEgKCB6FlQnAS9VxjGl+fBTyqdfn7ud7hWtsxyXeAs9lC1ZmB
EZtYzJc5WW92ggREtrCcoYxh7MJafhMMDBtWufr/FtKRNaiuxv0FIwKC+PR2Gv27
2VnV3ojC4RxfxlVIvDE5j3WhzZ02zehqTTIZPhMcJ1l4s79FqVAaaTJ7Nq6TSOOm
wFsMRSbQiXUVutMfHaOshXtQTqHo59qZBMTcHLGxyac+eE7NTwk3u+o5mrGnUpNx
h4bbxpMl5wgKIfd1vqnu2KS51CHbEEupg6iW6g6CqZcc4sp6iF85k8h5Cwq7gnoS
HAnTNqIDNF25vzAXZ5OlWB6u7X/NrUrHzIWHuYkMtAxS4l25Y19n1jlxCKtFTRkd
uBBLfwAsNJ4nWkC7GRF1yLQpGpzzR3NeynXjPdLhvptt3npnDNA=
=p75l
-----END PGP SIGNATURE-----
