-----BEGIN PGP SIGNATURE-----

iQIzBAABCAAdFiEEDwb/hr7q9OcYZu5SMu5TVaa8bkIFAmim/EUACgkQMu5TVaa8
bkIeRw/+O1onTp9pshZGN4YGpEpW0Hhal6CWw61GCixgSdxLzKmcbhdr8wE9mc/w
IU/Zhgnr91DDbS3I+QAraIFI1nX1t1hR0U/k25MIWsYM2pJSieRZxlGAOWq/Nnkz
gAAB/FfQ3BxZaIJzFA2kuBtgsc8RlulXNR9GgzdebEm6q+83vCzxpm8NrdEWd87k
N/lS6E0bl0p67yNZhhCfbigwvv48mmyEgSfRaemzQj1Nfd7smW5KcqqbZLJUH0tI
UqwaJc9wqjtKya7D//uyXeuehHaEFqHOeDpTbM7nfulNfiz2K6c+cRhGyXk4p1uj
LhXNpfwNUOsFNeHg/ozn8Qvl3Aq5UEY7SOlKWUjFlPauaw1L1CLD9OjFAqXdTR9n
r9//K9GhhmaVzt0s2i8Ilu7EQKgXOYKSUA/eskiJYxEgXOQebgjbNP+yq0KptTjB
Pq8XF3UBMPFli92COnn+iYSkLhRIYslvMIRGJNkp9/eyxb9hr6zQSqiiycH+zhJa
/bY5wf2vwzV8BPcRYGk68NtWwhX5az8ZpvAcwZ+xEJuE5jqpc0ITpKCPL5rDdGnK
yI3hKU3CP8sCfSBgoe6yTOlsPDoDcCsNAFAV5a/EVw4p0QAYtQNH+jcT9UgyGh+u
m3keud4MkDJiY6SnBkqpQbBRgz8myIaYmOd8rq3E2TBavV69Ojs=
=u2V+
-----END PGP SIGNATURE-----
