-----BEGIN PGP SIGNATURE-----

iQIzBAABCAAdFiEEDwb/hr7q9OcYZu5SMu5TVaa8bkIFAmfKKUQACgkQMu5TVaa8
bkJ88BAAkhV59AFB5AeppgaKkXoI6bdHNalacwjtc4JSkdiCfg28ngMPttFNcWJj
a/ecrlFnYYDpE8vAvbmFPoKSZ+VrsqzTLNsk8nthmt31PlfC0iKHi17Zmh6XBWiF
Yw7nivnyWDvxe+SGfwfvAbw5o0na0SHFzRXZX92VvdX5DyaWLfV2rMJDXUKG/Ji+
83mbnXOzi8rrf6u5l+oUMp+utqA4QfhvVEGFKQ6FcNSySKYpkVjbfa0Q1KAisF73
Fba9YDpJ0SnJBUsd6E6pvwvjZ8xyPyXLbHAWmP9wMX1PvQ8gBsJXycPAJVKdNDqK
FZto5VM2THhAAiOi95l7cTolCqBuRhgFDnj4yGqAMMG/6RrJvM8OLpFuV8soqu2O
Hx5B3Lr+8esudu+LAY2C78i9IAnQCbG9uN+40DKoxMlI4hewm10NXieClJKlETnt
NJWEu0ySHNCUsZO2wpatxmhaBnR3zJHzL7GctAsG+UaN9D8e81C/qxvq72tfrxdQ
0wxCAUSueRq2R54bEQ+h7bzth6t0GCjCHckXpmPjxV6HjyTa7x/xKeMVFbuxztJN
H4J2elqKWORHQP4rSr19XFft3HItMyBZjbeIH+CqTeGe+4g42F3OIzykGoKmtSFN
JFAhbAtDWMhZSRh6Sex6L2pOEV26kMSTR5E8vE21NMYmU+lNZ8c=
=+Ito
-----END PGP SIGNATURE-----
