-----BEGIN PGP SIGNATURE-----

iQIzBAABCAAdFiEEDwb/hr7q9OcYZu5SMu5TVaa8bkIFAmjNM4QACgkQMu5TVaa8
bkKmoA/+KrDWlwG/MATcvoAvzyPN/twrT0Kwa/X4setYwEGWSNb820kstagxAWhH
ninfQGU3q3+YJZ8B0rQVtv4y1sGZIEB1hZ/aYOWCaDHKM5NZx/sfdIf76cfk0Agj
jzjuQs/7RXgIwmjd8Og5g9KqPEfIoQtzrfuyC2KjgYsAQ480PA9X68E80A0zQO+r
vuUdhcvqb6wQVOnAalYdljQygKRndCZRCZFCCYC4nq5+kpSsjBXrb37LSg4w3eJL
iiwj9qjCriLP8zksVN5m9yFIreTHy5Ph2PjEqZ2LVlmYeJwKYmBEt0uLxPEhuBWt
cKrifGNldt7JMijgOvFCONiyDsWPFjcNhRM69AJJYOfY5ahEU0emubqpWZ98AgO5
VxU4YrJ0y4tF/yp0+r78ssZ4/rNf14ToO2rceJkyex9p3AJgKoZQpiZQmgss7bJZ
QWcTSycTY7+8zA0jWxkUDh7Sw4ElNawKZN6ztbVqhsIdsjCb3l+4C39NIEcmOe6n
tcGtG4o+d7cn8qZQaV1lZsHPtNGuk9c0Sou18gvfDBUEm9pyPM8OQ/s5MvHiceX8
ffTJRhRxsitBSBQ30topXL/Sb9HA2xSkPfotpIB8jxPmXGkejPG9fnXMkBDmtmAB
GFKiKUoNipyMmH3K0G1+sxGnZrS2TycL09YGEkWkgQuqvQ5/oPY=
=UpO7
-----END PGP SIGNATURE-----
