-----BEGIN PGP SIGNATURE-----

iQIzBAABCAAdFiEEDwb/hr7q9OcYZu5SMu5TVaa8bkIFAmje8H4ACgkQMu5TVaa8
bkJQ/g/+LgcvRKKbkmMWrc7DEDiEbrOAeU2gXc9/hCl++swhHxDSvMg1QzoVKs07
oRAfD92y6htuhRe+wwR+0tLupZmbWrmfnuK7jXE4+7TguI7bFX+2XEETNA9tenuF
7Ru0vEarnWeYn9KPplj07JGMYbzURwJk2SuAnoVQsxdKKQLz0O14kgfSS3rYwrJM
t4AeCV9Mx/YoGEhMkiwMQEDyuNTMhX6WW+qskqxEUH9hKAFRV8AVRO7GdilR2Rkd
PdWljy83ge2ngrww7mAx0OiidhKteVXfetIuQm8Yfk6F0toLZWodpDd/5+YBL9Db
nNEYof1a836zGb+Pjxz1U/iMqWEJBxhuLXx1H942rh6s8yhMErACk0fK9Bw8VSbX
+NdWJoW4LM5g8vjulhLZH4YFjyIEe0S4FmL9lg5S+aYLPSwb37g9P0TaO9PO5vOK
+43IyrhxPDPb9KbD87H85TK6NzsU5Kn1gXPMqpDNLjFlfFFZw0zw/alk89g/JJgq
pNGceqqXp2ifpu8qEdXxRVZ8qvmdq3Q0/dH+JrIcwLXIBgYOg2IzL5ZfTaU3uQzv
dwMI8v8aIlECBqMy1zoeN/959DCV8uMcofcTNx+Mcb27TdQxwhiwJMTQjnbhzo9d
pG7eiLTmjLS7YASTlxS9npU6QVkc8v52rwFA0JEQ/65z2EwHUtM=
=Ddme
-----END PGP SIGNATURE-----
