-----BEGIN PGP SIGNATURE-----

iQIzBAABCAAdFiEEDwb/hr7q9OcYZu5SMu5TVaa8bkIFAmgTQVgACgkQMu5TVaa8
bkKZ2RAAjm+h2oVa2rXdcf7aWCBhDQMR7kagnHu1HAN+a4ZactBEVtfGmKs/rSqp
xmKXpMIRbHqvRjKqhr0vK4TMCWhkmYNoJgnpQnNzpTXc5UctIYEdOP6m9Lqj4dfN
mkSoQPmUvFEnFC06QtaI/YkG9Pdym6SKp3BRbHoI8JFVhFfFDnN8G0rxPh9pgEpD
adPfTIKAEFB9GCRzx60K9doHFIUvkKDIxg4FZWHOe94p6Gac3AsWDysJJxw9oo47
qbMGWRqUozw7s9PVT5nqZAYckf9ctAO+N8elb8nBEQll9sro1cNCv1v2JIdj2Gjc
nQK8lQQmTI/JR2bhBkjIwcKvMI+Vf7ZQ6JfdM8v5QV306rngDZiTKewh46ccRZqd
HaFpOV49R9IAAG3xqt7jbl/RlQvJiZDkcfidNjSrpSlFzrqq3vjrB9GvbeGUOrYU
ilkzV3CsCcgQje2Q7ePZIe49ezKNDz8K8C2gM/ZHgwN2ms3FDkD4CRSFvdNa1zQU
WIlwmRUYPv6AJ7XbK0CdSSaZORgvN+l8bG4zuqYvF8L7yBjrBmafT4DtzLBoXtq8
cU8NSLdkxmFmr/mEM2M+mGHKUAM9pjsLXKGrNjRSuhKTfSa8CwjLJNJ5Lj6Dm6+J
a95MPWBu3npISJYy14wrdkaF6Iwg27yPqd0NUNdQ/yCY2v9n61U=
=4loL
-----END PGP SIGNATURE-----
