-----BEGIN PGP SIGNATURE-----

iQIzBAABCAAdFiEEDwb/hr7q9OcYZu5SMu5TVaa8bkIFAmjeMd4ACgkQMu5TVaa8
bkJtVQ/7BBz10P+yvZCktpHP+oitSJmckramvmwc+mcIJWwuJqK2q6y2wNwTjDi8
65LwWcNcUevvO8DcQCjj/mDGeqBonyJUmCwXA9/zEQnjUhpYw8LEs00x973ustYT
wwAGVa8gZTyQAN1HJB0qxr1mEPqR6PS03+3RB53cjF3YbIHxJT8jEkOaDc72CFDp
OqesZctU72PDSxZ8Ae/q4E5NQtPUyv+RL23rO9/sSexfafO5nKoW2BaFAaewXvEJ
Git8zcxuU8eTiw8EWOnGfg0pTDlctJqyw32p3mbRnrLUaa32ubXcPHHw3JmUkm/v
RJWj3XpM7JJMBSdXxiu/gbunQZzCEDcVGiDeBVleGgecp85CFyKu7qMxj7VPZgii
WgQoZV227PvRLDzIus4Og2vgiS2r076XEgJVhCm3EgTHEeHyIzrbPkzAlK1ucrcG
Y/6ORc20t3dxR9FjnCs5EE1SThhj3M1iwtB9tentAEPm1CPSg9EInwxOH0Wd/BDT
ftQKtorbEXQrzQ4PsQqnf6cC4yrjIZ9014MOxJhH/KdMwEJ3Lcm67aiMB0hZE4zk
V2v0MdwZT51kxJmEH5HrsiC0/9zFALvgMkxKsrJVMeD5o4waTPKVbOq1DxN8ojvQ
YtLRd9am8qcFU15NHoF4+76t4xtQ2m3jU9JpxwpKsWK4y3HqiRE=
=akyB
-----END PGP SIGNATURE-----
