-----BEGIN PGP SIGNATURE-----

iQIzBAABCAAdFiEEDwb/hr7q9OcYZu5SMu5TVaa8bkIFAmhfKIkACgkQMu5TVaa8
bkJ+Hg/+NK59j4w9z8jhyVN/BZIkkQbwuBnQO1tUJAc66MRpLPK3ZDXy36o7lemI
m8EL4cH/ajBJXpEsrOfAW6GAAcASDaV5Z51wOtuHsjo1KmF8+dU4TjAQ3ygjEQLo
jH8RPqisn63QKQGh7wHE9pYVPwpexDDWA1PXIj9XsZW/fLyUY9y3FS1wxvXpMlGB
ix1gvxLNubOELeUMF7TZIRBwXF9rzPll540LZYk9Sw3qr6UvMbjVCHrh2Upinipr
mdk/FuGBWyycZcqDAq8swyZFIdwkwy6+jzZk1yx9bXFG/agOac/x+1N5NmvxkTWa
XzjowsUBpP+rx++BX9wkyK4incCjOzBbk9bnerwv3axa1hHw5J3G/54EtbmI9KYs
MFWNY3MxkMu4DGzZzyhx4rq7w9mxWZuzZOvhqUN+3hpbojPMUg+m9FgeMg6SE1oM
c9M5TQiiWy/bpIakSM8FV3zVEsVoOa2U8bKGZPY+tmYpulwBzSmN6h4wI+RsuMvl
97YL+0Xfm2fw9Rk64WTsbbpLDl0QhXDwJa2bxsoltOIZgVwKr+5aSwd7XkAj1aco
4Y/viPZdIKhty5T2opnmxgILsRbwafgZBlhB7ThQGCOiAbQ3nRtrw3deb+kVMeGi
SJeiDKh7kN+F4tq4oaucr4ihK4D9oPYB5wN0JKIgtum87n8CbN4=
=Qle0
-----END PGP SIGNATURE-----
