-----BEGIN PGP SIGNATURE-----

iQIzBAABCAAdFiEEDwb/hr7q9OcYZu5SMu5TVaa8bkIFAmkEOWcACgkQMu5TVaa8
bkKOXw/8C+haTyg8Nn7q5IslssGEN/0EyGHsJIgxXXpMyCMIamsdsFK5U9l8jvf3
54FJWh7OHSOGeEkXTFYyOxQvrTtYcDazDwu+whr3WwTjRFQ2EU7m98WJMEYkZtlc
v6t7LLrg2kWf/oXxPpR8Tu3jSTJ55ygbBzPuQpYSkZHRiUV/2QReEiCHH7eytkEU
HPD/LyOcSZCtt2oJKTR12rVzmHfUv7SN9i/fkKm1Q5nqZgCKPk5q7lXUHyd3lDEW
KlyhU3d6n3k4Lye+0oLqR6t9Wp6ay9NAXo2ZX8v0mnfvl1nuguhnuJVjvzkMYgVx
o97X98krhHhqmfMm/4lNSy2yl7eX0BFpHM6nHPiG0R0JIv/F2hkRjQTrlwc4FwVK
1Jgq45iu/CcVY8OOxeZq9n4/vhj7piH3NzO3fNCE9KAhjRmRq+CtFVeYjEh2vEjs
q7VcZnH4T1prwxowLFkrkDKzMBmGf4eVge69JnhIgAgHeFHbtPYwKYMuJk3F4FhA
tAQy0zyhEB91IQi4PHCdV1zD7GuBNKIChXt1OPOSXuPyjvDD5fqmzqHCcS7CQsWa
VVXTiCTXRhF2JdYNJ9rITHVGLNBgm1LepK00cXZeV6qqu5+zP6rPHmLblM8DjRnP
MJRvxsTo5r2j/x99QrNZ82GNoOoehPlhykDqMZ9x2mUQlnV5S8E=
=f6Rd
-----END PGP SIGNATURE-----
