-----BEGIN PGP SIGNATURE-----

iQIzBAABCAAdFiEEDwb/hr7q9OcYZu5SMu5TVaa8bkIFAmgBf+0ACgkQMu5TVaa8
bkLB4BAAlbMmzCgHYS+dg+cig9D35AW+YN6AKHqJKR0DguNPLhieFOslcbrrRS5z
B4RDLsrEJz88qDJrTv2D6Ybh7e5K2ILNzYxpTXCluMMa8ZbW8n1gUf6qI89E8bAt
9t2Ckgb090SuEDC8pKTD+IZ6d+tD6vumKDbqpcCJfr0FCWCGtVeeFPj5w6zgNB5E
G1hF0nkNueM2DsCn1y7ulEoQCH/KpcInBQMb0WKigVbnsDBip4Izpekuy+caSyq/
9tPINMwpps6cA3foeCQSy5BdtcbQum5d+TNz7nYrD2Xrt5RVMgNUwcYNQkoDGo53
ZJ2LoPu8wsfLYSbZ0uJekWf7g1nT0U2wQjdX0W3ANxgz4ZrVk39Ks2WOXtJ46i9G
Emp+NbVah85utk7MQ29bCnP9G4lxPMZoTxj7XuB9jkif399hgNXntzRy0L588gaS
ad7lsrZogAe9D5aRnx81J225oixTLj7cEOkqpxwZ8+RvPWmIf9h+siCAwrIZ0CSO
6iF3XGk1XR6SPXo0xNglmjH53BNmto/U9PcIU3KxgXzHKXuGTLO5wOx3lj22B+dl
StxmIu+A1CHGclrlw4181jOuvZS2u2m2zXU/UIYl/csSkVeKZOPbP7tV+xE0aTEm
YS3zUb1ekxVNs4U3SoUrE0k0J/oNr7x/k2DJQkq/pxQGqnYmvcY=
=cMbV
-----END PGP SIGNATURE-----
