-----BEGIN PGP SIGNATURE-----

iQIzBAABCAAdFiEEDwb/hr7q9OcYZu5SMu5TVaa8bkIFAmfcFWoACgkQMu5TVaa8
bkKJTxAAivD0G2EeSXyf/oX35jp5NIbKlr/dF/h0h8CisEj9ZQxq3tUPxAcXvLGd
OiE7CSf3PdzVFQfccWn1+0wnrGvcnMOi7y350h4eQ2/WqugBllZaow5e4K7/kRXX
ZcWx8dADDJMvbnzh5zs1CftFRQ6HKtS2t8y8fL1sFhKAYslAZCXBVdo1kgQXEyZZ
/9FwOctNn2JYdMHa7o2ykstwrvc64TsjsQcj8Zq1pQWLDlteA+EdIUsVbGdyMMZS
M3yOdaGnWyqeZ6KDRS7franbX84cwr5OVtLXJf8SeeAkBQUo67ZzbmYBCTaIRBVW
RuEaIiKrAmIHO31ArcNpfCTukTgEy3+6wrW3k3fAbFa97T0F2X25/OFMUg0pFZwU
5esF7912DfWtL1mUtqgA0H6EWC5oIC7JnW9ydYobbSPBVAXr5Xy4+c6Uk8b6o5yM
nFNST45otBa0JKhWoWzL2O+PstXC4Hl5zi34Elt05P6MPjZGWsP1uDcZSlc2rlPA
Hc48XH9pQb+2IXZxDCIH4wDnPAZpwXPaFXvH6Zug6wAiEM85xnJDA840Xo1uRfp7
a03BzU7U5SGTnSWHxkTe5jra2piNgNPiUaltAOKSEQgwJf2kZUEhs/VtunkrufJe
sfMSe23ODl5rmlY5OHnKOekL+Wjd2zgBy2HO4oc9agJyXPmGq5Y=
=V3vc
-----END PGP SIGNATURE-----
