-----BEGIN PGP SIGNATURE-----

iQIzBAABCAAdFiEEDwb/hr7q9OcYZu5SMu5TVaa8bkIFAmiDA8gACgkQMu5TVaa8
bkLjrg//VpawQTFWKkTpk8Bacdv37WCzjy/jeyiaPyqD9yviDHT7Lzm0PNus58iE
L9pjPhZyfIuFYHlUbiRuKlgownLFwka81F43zEoDkK+Y8A0CG4kGS3ZpkX+1IsuF
HnGdBzaTD7ML0Vh8hUOxBAtoGwpGMX6DXe2pCVgBRLcfPKh1SqT1klIn8+R0UTU3
ZETQn2fwhKOfEVU5Cu8F68UM/VRG1G4JrJStCOH0s+TkWQ21KFiXrimve988m2MC
XnKlHeF0pN2070wzEIadGA42TnsBXpmbozKK8BYGEKm1ccHo0vZz24gtOKVT5I6j
4z1n4q1APkRSZoHXvROCGkBCdwnw89eOgHBcc+G9bAPsO2ThjD0fqbCwvlnJGXOO
bDAPy35CsYq0L0TJQe0+4B3+GHJXa3XBrVEnEJocQR49TbzYXLa/jXqFGkRJW+86
nTctb5Rt6DCv00630SyOvF7LlLuRbhCrjuxwkbbvNNes+0z1sCCjrfs553u3bwoQ
W5wz5vzEuhPvsa1t0qnwCwBPS85skG/kGZB0uMCro0coylBfzzCRoSHB3oxAxFoO
53oDKz/TwQxpCdeiC8ZeLwLv/ZqSF4NKahbyQQvNVkhSF+bXWwy3Rr/lIPfgSm5n
3LvqVSBVOoZwiZp/1m8V4KlYCFTWbVxvKEdBYVo/Ic0KdH7X/I8=
=+HuA
-----END PGP SIGNATURE-----
