-----BEGIN PGP SIGNATURE-----

iQIzBAABCAAdFiEEDwb/hr7q9OcYZu5SMu5TVaa8bkIFAmiCu0AACgkQMu5TVaa8
bkLzqw//fT0/9w1fSzZKXOhseqTYCa22DDNXOkaGz5R98qjUJbJLhuYVp7sKaOXp
A8OJ/V5phLmgYGR6nu78tu+e0qOowckW21c/vlEtW4FxCmRUQrW7PRmUf3wECLIo
fz2EGBJz1Tibq22cK24AzEjPgg+ne5857v7EWg2vo2FPINfm96tM1ymim16AjTjg
eDin6gX/OQxIfx8u9JhuSj2JPGVK93xpj1A0Z8Asi177Ls1bUe5PR2lwnWktb3Cs
C2D+YxGAu+a7+rVJ9MaJ2Ahg2H/w8RQbl7sHA+rHq7xL2PpTqCZ+OUTg+iqd4Qle
pSWXKlj9+SfVV/ZGcQvqkTrTCH8tC42aNsrIWUmBRevtobdkYEcU7ROZtnd1KNhT
1iJTQY7gUwgIiGm0zGuWLRQjmkKasKlLF7wFCqned9rT0TrkVtM3iGVCbrcmOOSJ
mGu6DfMwXbI4JRlk+btUTuALdMwF3YEfR3jJszqvgQkyqdCSusKS6ci35ppB737D
ba7OFLN9sWdGl+tkissQcfqW3AmFst6+hSLjrBJNf1wkMzYGFa+pXPmj7PtWxHFP
4NV+BOtElgAa07j0cSwXBdgjzgljITxd/1Gzo22dbqw6U+S+2BXtccKGQ7D0YcKC
cmXTAGWXqiwNRfDaeeHAxJnD3BgVja2Zp0FhSrgZ9yiBGjN6eXU=
=nKoS
-----END PGP SIGNATURE-----
