-----BEGIN PGP SIGNATURE-----

iQIzBAABCAAdFiEEDwb/hr7q9OcYZu5SMu5TVaa8bkIFAmim2isACgkQMu5TVaa8
bkLgCA//QXPnH3VpJq29Ev2ighuIIdyVyjeUR1CiolPfKOOAl6ID8f1pNZASyQLl
oi4REVyB05dwMmZXZLwj4FLyf9dK4FN/949aYnOINCzbqz0Ky3NjqHAose2Mcllx
4Lxal90eo0kvYy/URBeBD7DNytEc+hUieM+NXpM1ZWZqRUdO6qm2y9bsFGcm0Cam
yiLh/w/60uTZeKyhtD4tmRF7MPj7EXlE6BFKUm1pajzKHDYxINmy6VpwQYEQ6VZB
t2TXh7LqbB6KInKdQVnrlDwp+4WWVSKHydxQoLcBcDQqxeC+ERWcfc68lyfeQUkz
vSNg+/lSMKBo9CrGFgE9wdmASmAJ0HOWd6HxThSXDoR0krimspO/pmpt6IqG2O6Y
9V8tQJ241f8iPl/FzbGJgVvSVCR1n0Ve3u7eLUcYYxUKz7Da6FDdR8Xn8Nba6rxn
2GwSdjzQ5eA/xeOJ97iDiQUogsUOZtCoNZDSVk3pTSr4wS7kL5NF7cn0v0avsmGE
2532yTyMi8jo38I/2Gyq3PqH+QSam4xBxb3UBAyvJ7fOMo70RnSMYNux03iKxNWQ
PAo5QYeQQIVmm+y1zgx7v4Drtxjum9K75qzfSFBiZSoGb624GufWncNGFTMnInXP
/ek+WLbkRDQCkJs0qKZKfGQVIOIFmEHR3iKY27IVP476IBpWXcU=
=96J4
-----END PGP SIGNATURE-----
