-----BEGIN PGP SIGNATURE-----

iQIzBAABCAAdFiEEDwb/hr7q9OcYZu5SMu5TVaa8bkIFAminWJAACgkQMu5TVaa8
bkIKnw/9Hfhm6sIfMbuQKN1H86jebCNtpG3CEW771k4BRmy2+H7HTfsUfJNEXhFm
mk7sAw/xs6PD4VZCtnd9y90/IoZH7kUloFiHurUGOtyPVCsIbj8ythgPj+mQfYhl
f2SxV4tq0uYmUxPmWdvBeFbOlVAA6z3iJ0XLi3oXhgQhCa4IPpVhVylQSuff3PfT
mY+Jipyx5NWzmmqxz22VZe460adu8x97JU7CeuRxx/OLczzJEN+nqiiY/s+eINno
P77LEcOMunE/queTtBWTbgwVL0SjQj40ToUJZICk1/a2S8i9waFas7Fbo1QSBeYE
XHtTiWBt0QMQWUYDSzIYXJI262hv/nocDahF30yajN0JAYm9/04s7DeM7gFvMaC6
4x2ytlPFOfzwX8/uur6zxRCtwq+syOwwWyoRpLmVXpBKknQ5gzjwaW1TZQMlmgt8
BRCdHjUFLd9Qz61RCniL668kuuIzCyAJKYGu1fptvySJ/KxoNTHZV7Nbx4G60G8X
yFhQN7HMfAtsnM8fEGFtnq/4W17QPZsXVJoG4N1XAPSVPJohu1cv6Jm2x3NulI4Y
6sm4lJF/BD+A2JrcXDUliGh9r+fwKW5v8iswQuItsVfNikb+buP7XYvW5qSkpKNC
l1RQt5dlkRM/sOkDIoBUl2YEOw6oZ9R3+zazZAryOPST1xTRbCM=
=APD6
-----END PGP SIGNATURE-----
