-----BEGIN PGP SIGNATURE-----

iQIzBAABCAAdFiEEDwb/hr7q9OcYZu5SMu5TVaa8bkIFAmiog3EACgkQMu5TVaa8
bkIV6w/9GWnCvYOnHI3T04kp2EUTGKLaaQ4K0XZs9kb4414FlRpz15avYfLe7lO2
alQfavsDqremrqDrrF83e8k+CYoFDmPKRF49vJCE3PgvYwx70upMXHIUNzCtrygW
w16gTRPFT+w+v2hh64laYH0m+Y6YrDmeFbiO29OZrVnzDJ/de2b2HO4Vc2FD0zT3
6GGjU+uOUB5avmpzII43Pnv3yiUdU8ZYCra1F9OUSHpSsw1EfJvorJQbXZojwd2R
jPRVK+VQa/vc0rJNjDLk6iPhpbKFf6/6LHHYmba+CjEJinGrUf7gN36G8geEhRa2
Xl60XZxKSlJKyo5e2wDt6VsO7mawc29mtnTSRUzg2u7+lDy7iLbUENHxpmho7jl1
rEUgi91xfhBnOuJmtJ0MQGzvMP/zUFW8Ms23RwJUYxiIqPkCNJuykFv27t9dg/b+
LjxoGlGEt0Xli9wWryBXAC8r8DFNTuSLU/nfiq9pcLRV5VNW3dShjNsPF/hmWWfA
YS/6i/uZy5Is+YnusdZ2D9LxNFW4NXLVUgAP2+bBJ0W1qnpxwKgufNBVFLjgR7/1
MFWwpPWnd3lFRUxmbSgeabE19Xieai9c1VY33+G87ylSraicdVZTtejDLz1+nCys
fbx9hqEV6wMEI5sGQIwyWCL751cZ2Gjd1UivtN72ksUVzXwFPB0=
=Df6G
-----END PGP SIGNATURE-----
