-----BEGIN PGP SIGNATURE-----

iQIzBAABCAAdFiEEDwb/hr7q9OcYZu5SMu5TVaa8bkIFAmin/3kACgkQMu5TVaa8
bkIGLw//VDAkK09bsY67YPAmjjobn2Fx3pR5i1c8gajQ+kTovs/wfBkcspE9rPJT
GLBKAXMP88QEwVOiwCiVVR5KiEPYS4PbE5PVrZdRfzT+PkzGwZUvrTh81dgt2eaW
uRLZ/FKeCQZU1NUKTXc1znYDS4BXPM9k4wuTMmjuyhe+spWuPXgSiug7LhA0XVJY
kvLjai5XiwQscYkDpDqkCY9mo21eBER2gdqopHZrou/RhBTg1uOQnbINzn63FUg2
PwhP5cni0wQwzm4R1p/kK+BQFSbQZaLjBBr/iXTa7S7Fi5d6UwR64+kdkjBFftUQ
dkGmhd9LJPgLYoAsMOPseJZpPzQtcwGY/l8B2w5/g1Y3qw4Z/9zBWg0wE+FNWTRP
nF9/P5E/Hkk8fkYHRlcvZmjcfmlL49UwGzSaeGwAY/0Sdh4GByRwUJE8RQWUeXct
goeFLK+vcm9k5mBkNn6WVDxWI+QWKI0b6OskjpXm3U3pFjFRrziG/Z2P2Vrl1E4t
88cTE1teQaiOnrMALBVrI+pTv3Lpmw9SxQy89yB2S/44fR5MI3/VCkLTgCnLltOs
pL+gSo2BSTAQlHYJVpnrAHXow0pNRQ1Q7Fd/c7v+e3JHhNQljufIeOpkXN6J6LAa
4+FzoIpuhJCrBrwwLXWAs0I7beaiMAzvFwEBWOvZmDLvfGrrw/U=
=lmnx
-----END PGP SIGNATURE-----
