-----BEGIN PGP SIGNATURE-----

iQIzBAABCAAdFiEEDwb/hr7q9OcYZu5SMu5TVaa8bkIFAmiDN9UACgkQMu5TVaa8
bkI+bBAApV3RmekoenF9apOOJ5hLhrQyF+Jg6FlRldwRH7W1SAyDlMu/qy3aN2kg
4DxVbNL7Wrwr3yzi1j1MLvc9Lm6bdy+j2v8jW9OmdYuGXKDFurwVj/sUs9ZHoj+n
lOTF6poIopPVUzWfr3GtMVBtvw2Q0vtnJZyr3U40NtnnXlAfq93OnCrSgdS7WxLG
Nb+IPmsCJhXemqkzyUaKTJPoCjhu+yAzzT89+RM5XLGejpZD5qFv4OoGUbxzc4ND
rtTOTIIbdWzZaCip5C0kgKQuknHerXpmjhOJW109ybnecRy754XqFElCC1Za4dPe
F91oMdXKEGB1Agg3PONnJVBR4tPWjx4mPKZhHXpEHX9JEsCC86+TzLl37UJn5TEC
2B4GjtYf9m/MYw75GdUMPpLl+bZ3Z5M43pwKgIERDEs27YbjXhLaMyrQ9iSFCsRp
YIRiKLcbSy8Bl4kUf6rufD3fID9VP2MTWMteiN8xXbH/gCf5Ua/eNUzLoPSJDeDG
TIb3Lcdm5ecnlszUMBd6j9cPfdYsj24N3wb9NxXMVpIKLL7s5IdlrsftEH0S3jOl
OYkfcP7OT1W2a02lZhaTGqwZzcSisIxIy5pqUznREnxIklAon5fCGudJ7pC/y1Pl
lGuMFoUMDxio5Q+irSWPJ+aTAKggnkg2FBPLvCg3sGKhvEGhqxs=
=D9Sq
-----END PGP SIGNATURE-----
