-----BEGIN PGP SIGNATURE-----

iQIzBAABCAAdFiEEDwb/hr7q9OcYZu5SMu5TVaa8bkIFAmjM3g8ACgkQMu5TVaa8
bkIfOw/8CiW5XRpGdQ8W0Fjr7UCuaCzeS0e3xht/dFonhINwV0OObAerHpGC1YAp
6gp7Tm320OyAsWSjq7Oexi2M7lzQVRHJxCxm7eE6ZqvtYakzx0vMbA1u1TsBRLSU
offkvwLlbiDgvrEp6reg0+rnKdAHAz7CDCX4C9Gu+v2m0R8xM8foE53fMqcaNpT9
ELUHK6xgiAYI64YD/3tTzZvVOydn7t0xVDdC9nw3wMNUce3XBMq7uziL3XPm9U1I
szPIFoC9gDqC697ocZ5fmEHuHK/sHqDmMMddpAKVZ6sCxvf+K1pWfeo+TUs4fBUE
d5KQ6gRgwGqQFmNNKWWogeusqGW5LVdBML7xcGwUutU0b2cs/AQumcMr/wt5ZtqW
VmCKCxZvyIdMohkldOPhXyWQpfyd6e0IOfZmp2Qxf7KphapRvJAWlM1TFg0PqqkX
oVkNDZNbce9qAvGnJHAYNtoCbe3M7GsqMwbT+1x1WZPm4tizMsdVumH/E1InxtOX
8VMQrwONf90Bs2Qu7V11l3j23Mp6UyAZ8lOvZLgV8Uj9O2IwLwu4ZciaM8EpHeeG
s8awXCmZeB/n7shYfaeZPeRvKFO2j+qg6wbfCKvQpyMo1fwHVx+G5Yd7yDUYsG5W
PeLMIxrVG4y9blFAHO7BaIJyNkcRg7Hspf2g9ryc6Bd6vZQNv5c=
=ZQ45
-----END PGP SIGNATURE-----
