-----BEGIN PGP SIGNATURE-----

iQIzBAABCAAdFiEEDwb/hr7q9OcYZu5SMu5TVaa8bkIFAmiv3vQACgkQMu5TVaa8
bkJkMQ//bomKiXnKdJEcsyRdvXaLr09MZsIn1rXpm7TBJZKwX8dRtOyD5BniQtM1
AI6sKBlsMV0NKclJl8IaCJFYYKQMbGguMl91YuR8jAdhlNzCaoJ4RXuEPEDpSCuq
SZxX0lsaQplbfh/rN9rVxwl2G29HTQ93xjB1rlYlc8LCIdfy4kne997hR9pzOJis
B0duI7Yz3yAyjBkte5Llyt5lX7QNKIYe5RcNyeQdPG3S1RNeHoQCkOwrCIA/ThGj
icRaisKhEobnZQTcXppegCYmEF+nW8pQrU4htLpG1ZM+FXgZ5TgkVIwEKzFBT5Nr
27goh4Z3HPu39A/A6eFEf10ERj9LuC9WGQxn9g+ps6/wY+MspaBwDy38yvZXq+iS
bcAjv902Fd/vu9CoBwLOg7CB5/wxIJiS2zbn1k2XB44uuuYfKITZNgRpK+G0BToT
Xi11eR7jT34VtXI8Dnk0/3yvde/iybPI8q+XP5dGRDqhAEcYduPjy7r5xN5D8KrG
4zdbH1qwDs1gAuKF5AH6GgFuNdA6aWl+5OItiWriAc/bn3s0MsgtqKqJq6g7dQh1
i6FrQykyMd9Q6fKqqMfIHbGlHwo4FIGAN3oLFEAZyHakMRM8RhU28Y9QtRHDZv+D
+gYPoQYaWZbVihatS+XiBls+f2be6YikGYZQsuK0oSxjAMFFcLc=
=Kenz
-----END PGP SIGNATURE-----
