-----BEGIN PGP SIGNATURE-----

iQIzBAABCAAdFiEEDwb/hr7q9OcYZu5SMu5TVaa8bkIFAmkEM84ACgkQMu5TVaa8
bkI7/A//c9i0naIr2UCmJR4dRgJxNwOH5qH40+i/ApF3YuZM9t4rH0wEQXYFZlbS
wQO/pxO2ikiACNRinQfGwwKX9LvmQxhRqf0jkuB5Hi9d98CGLqG3HpHeP8tHbfSG
1gytck5mNPeAfN0ACygO8AawKT5x3PCAonbLfPRb6CEJ+B/DnUsBq1cQxpMvMTAa
lMnpNTQpFFLZY5SxV7hkfA2xgmzFhwadhFxNTgYIVc1UdzxfkdkBbAizuwEKfOO+
3Owl82D8q4tdEPizx/JZbiMTB139LTcgLRCvITADPY5GV41vWMoA9R3Y0rXr8nl7
mxtb9GOK3AayGv4o3KU4LiBZXZ1pKCU+TyH6+hXZP6j/gGFMQ/gjymrH3QBvxHu0
uQz4bqhOM0S5ASezzqwxXt/r46ca+98yIimZB9rou2yrgNf+ecHIb9jLJWhjWepD
gjQlL55zJB0Z/BI0ioUD5p44DEQMYqB7Hm7m9r87wXSlyOqIfWLZkUkrFB16U+wD
0EzVy0dVTMGb++LBZdr/iVZgKNqt/UIyyILHLdsZJuW6MacG5al5dDciOC831XQZ
Lc4e/NQxXNpLAIUG8SAxS7WiYku/0VfGGCZYPDk78NlQZTNGk9eShv7IfzS2Xmp1
MrMo6p9EQ+qyrxqArf/dteHve8uztbCBj/Mt+Vs8EkoQhNlE6VY=
=uMIS
-----END PGP SIGNATURE-----
