-----BEGIN PGP SIGNATURE-----

iQIzBAABCAAdFiEEDwb/hr7q9OcYZu5SMu5TVaa8bkIFAmfv9CsACgkQMu5TVaa8
bkJ/WQ//eszjNs+3NkpETWNz2IHX6Icpgf5kcSLwou8QmjnIx71rO7Zza82st50/
YEeVVIF1vmfQgTeIAWjgP/gK3OKEJNnZLAljSOm7fVF/OjqcrTNucbIcb1UVqIdt
T+dZlodPTVfWkPTtVAr6Kt1xXYac3aRcVZQOu1RB2y9BINaDUO2EFhAJ6wBHGpX1
PwLpQ3tOQWGRmxOU97lIf3nqE8iWNlOWfDXra517uMDLxShtpyXJoC7XfyjOfYUa
IqAgUUjIrcuc60uNlckL5FDCLZUWgdqUhacaIUplkyUHHtbCO27x/YQBeNLkAhKH
OozdHYjoeYBxM1/u7fq/ICkomKj2oDeEhAAsoGORtDUUNtngn4pN5vAmEP9PvD32
Dan2A0z+4Mzi9IkuRGA3oGZnTyR/mLfFfx++SqPZHArzoLJT5agkkdAtu7MSOqaB
cKloXCH0HDGxpma1OQlnqjDwrh/0Rn3SWeDb5yP+U8z8yQKgXNIp2IqRWnab3cRp
jfEHns7vRAgCfUEDWc/mmgYbDCf9nxUT3h3RxGkF/DJ/dza27a14ykkUCy3x6J+m
/NKRxGb/6kih0drCivaugVuDf/zL31rTy9vrDJ2XuyLizXSecsJlihFQvaVczqFL
HQB2K4oqC0F6K94KwDFg0MDrvnIwg86xcgLOVDuSw335FCEANfU=
=q7IO
-----END PGP SIGNATURE-----
