-----BEGIN PGP SIGNATURE-----

iQIzBAABCAAdFiEEDwb/hr7q9OcYZu5SMu5TVaa8bkIFAmeld78ACgkQMu5TVaa8
bkKFbA/9EG+cWJ07aaoQjOyh5+1a501t4oOgFLNEcNwFdFdOqAYnK1QQ6RMcSJkE
bS7KaRjTgKRFpXX2OqAU+Edb8d+A8WlX9O8lBvIbBaWX+kqqEjuBDZKZqNmRf6dr
m6L4R0AUmulWOYF/vV791WlzkCRTEqYyt2ASBogugcplJi5rW4ri/zYEix9KTmyd
cvinOXPmEh2I0R5Sqdh9dnv8eHbwZfnWOA62ojODY+7oz+/ImorddooF0GR6zJPp
NJ8vEvKSxe49FCq+56UrkXKPrAYYOk+Y2rVU1IoPE1kx7Ndm7/C2OUQ0W/Vtq2b+
tuLQfqL3G/dqa8lS665jFFB4d1xjfprmz5Uoxsn+OcyKo2+vAFCo2hk0NolKmIB+
k3ILvjq1TRtmYP82sAoQo6nIxvy65KMQCPU9nPwSfc1GMMZojCLjiO2Yg2LvhEED
p6DgUJVCWzPVkccXRatQz6uIQJpLqOCAmkn0byeqhcl24rFpwxl9crPh843JHEp8
1s4dUcVOYA03G3D9yzqcao4nqF21KaqR1aDQVcXel1At4xIUZfHGIpasDZA2Ex0C
yx2tl0omyksq1GHYDOfov4m2lfOsOjTtqf8vUgQNpgCjNHEHx00Sasnsw5eSIsb/
/jc3EIm+rVABYzTYM1gUy5isw7xQXGvlXXICMROQPEt4GF+fGYY=
=4iZ8
-----END PGP SIGNATURE-----
