-----BEGIN PGP SIGNATURE-----

iQIzBAABCAAdFiEEDwb/hr7q9OcYZu5SMu5TVaa8bkIFAme3SmUACgkQMu5TVaa8
bkI/Dw/7BxkEbs09MM5X7CBG6wh8GgzKjGMXjrXcMPgeTubdg9O83HmUubKAMS38
BYyY8Fj6RTXjg/EcieqbSOQWbq4wlKrOaAPRd94EIWMvRFWmUzdtscmoM9YayuIP
TR9x8XKK3zPi3ue52+espA3EhWtmEpRfnxevuUDyJaZjDy3tpDqACtU+60DFa5Nv
NuutVWmHnLPNBNJfGaQm9nbIiMU0/oKsfz+H1Y1GyRpoUoRuV32InExAbjqTXT2t
/ieFmO+TyTgEEGQLNoXXvTUooxHGElEy5b9fnXmgAX/SFPHAs2cwbv5RJMVIHPAQ
ydKGBy87C0wxsakr4lroZ0wMqtgWi4DYQcdi6MAwLTVhRuW4ByTH5+NPXFWqZh9l
WOZaJe4YY8cXgFOesaGLVjiKXULoZJJXiTTFyZvosloFwLgjXGlF1Ya+zwpWVuOH
cU04PW7eUoR7UzTALrm8TL8ynEWKmZxXPBc6cAyedbcHONGITQHgDwDr72R/bQNo
FXE+hNrC67CutE7HivHlHIpxU1OjE9idTPhEij0RazvMP7/+Kp98nSrBvr/bR0sl
EL6uqNv6fLiIyGYENaoFdF87mk+dtgptGTz2lnCClPQpNu42inD33s7wvjdCycLR
zah6JlzW0U138xpMEhBUMaSCxibwIPZn3AwcaAKXxaLXSJVguos=
=DcaH
-----END PGP SIGNATURE-----
