-----BEGIN PGP SIGNATURE-----

iQIzBAABCAAdFiEEDwb/hr7q9OcYZu5SMu5TVaa8bkIFAmjM3L0ACgkQMu5TVaa8
bkJjHRAAg3zT5lgaxZ8sweyYO+aM/UPLDwQOLHdt5pIcn1FQ6a14yAMYUO4nZjp5
VPfVf8zW09kcGNxKPNgYmJJChSbHmJHONajuCTyMMOV2f7fONTTglus3FvB8risZ
7wJx0PAi3Ud3tV9jjjuOuwRhhgTQoe2VgR+XY1zQbuu4KRuvh0pXNpNelJSzXNH+
YDQH211U07IBE8Du0Gg2lAVsPi7O58YkS2WM+GZ65wZ8E93lokCmgYu6sVWuDDb0
uDwpHbTe961DfE25Fa0zKJBL5QrYLYj7/ztQr3yg8lSN3ppa6e1jfZ6sEUyyT/Di
Q2wDznkR7uZ9oFosPMoe10VI3SHac5gV7uj9g/nXY+NAl09YI2hu0txo3Ib0ceRn
STnylg+0gA2Mv9e3O/S5OqdB/w41LEFvDIYXpmxGj/ccRH9wfFhrJ82XsYZAYcxl
3pSPcZg5nTlCOUXQav/Ymcbs6rxSfJaMy51Z0Dv2vPwpbUBwjQvKWf/arSfAqecM
NKvj8nq7hndZFQqmGAYm30gNxhNatCiVI3Lx6pLAC5XDBmrbNq/8xsOnZ3P8nnP/
kNmWAGzwICC7bzspNqtQ975i/VtS5v89LRX4EwPQclHOXFqVOw44TyGZDAXmuqUh
8cZAWlMAlZTLZMJkuITy4//pFCKCKiTFAC0QFrLywkUi3wvxigc=
=xEaD
-----END PGP SIGNATURE-----
