-----BEGIN PGP SIGNATURE-----

iQIzBAABCAAdFiEEDwb/hr7q9OcYZu5SMu5TVaa8bkIFAmiD1kUACgkQMu5TVaa8
bkIPVRAAw1PlxQCgngSN+EckUJyy01MImHD7oGfiMe/TNdXT4ETEj5GECNeto9Ho
wdmvdCYwedz8qTe+j+Tyyt2+RGzil5p8BShAdnMeHXISDRxzR4LgEMQgZQiupqE2
hpUw7ImbtXR6W0CU9gYoFt8fpIoIkTLRBfASn3SqytcBO8ovNrF/MLoKCv31SriS
yRrb8420aYz7YtqImHK7sMdAFe7KnAzHGxWYyWrk+m6MFzGYdmaV2oRaKmCGhPEM
G150E7cLgDQmggPMkvcVSpUglZEFsWgVs9gGJ167kSR524VK/t3D5S8i0VyFPWge
wYNDgQbO7RgTAmcLlzXaNXcJQr+/XnwMrZx3Ph1z8AbAJrGMzA2emKks1v1Grsy2
fqlzWExsdrFayrnsNubJfLOzKMAuUNn80TUZ2SzwACWQusAZLofBeqXIfwp+qcvm
IytT5a29HlkPW0hJwg/KhlvNbLB5J84bEQqAuYAPFNjhBQ6EiQJBEFX0q6UWHKCH
agrmJu9/AR6ndyivaa7R8dyvH6pZ8LwwsEVP3VqPCPA8XGh6yDyzD+/JU35cAv53
p8fPqu+Kt+MZQXmxdti0fsAIfDmDSacCXPmd09+Xjai7ErxGN8mQcYeCpzKa+luV
WUDwve7l0ldI0JqewAbFomGsi0MEdX0mM3R1yCm8b5JL7QVypns=
=u4ru
-----END PGP SIGNATURE-----
